packages/bezier-icons/icons/cloud-download.svg

<svg width="24" height="24" viewBox="0 0 24 24" fill="none" xmlns="http://www.w3.org/2000/svg">
<path fill-rule="evenodd" clip-rule="evenodd" d="M12 6C9.92646 6 8.22038 7.57854 8.01979 9.5988L7.93032 10.5H6.25C4.45507 10.5 3 11.9551 3 13.75C3 15.5449 4.45508 17 6.25 17H7C7.55228 17 8 17.4477 8 18C8 18.5523 7.55228 19 7 19H6.25C3.35051 19 1 16.6495 1 13.75C1 10.8708 3.31768 8.53296 6.18914 8.50035C6.85537 5.91199 9.2039 4 12 4C14.2235 4 16.1628 5.20939 17.1989 7.00324C20.4206 7.10818 23 9.75286 23 13C23 16.3137 20.3137 19 17 19C16.4477 19 16 18.5523 16 18C16 17.4477 16.4477 17 17 17C19.2091 17 21 15.2091 21 13C21 10.7909 19.2091 9 17 9H15.9296L15.6676 8.40037C15.0494 6.98556 13.6387 6 12 6ZM12.7071 18.7071C12.3166 19.0976 11.6834 19.0976 11.2929 18.7071L8.36568 15.7799C7.8617 15.2759 8.21864 14.4142 8.93136 14.4142L11 14.4142L11 11C11 10.4477 11.4477 10 12 10C12.5523 10 13 10.4477 13 11L13 14.4142H15.0686C15.7813 14.4142 16.1383 15.2759 15.6343 15.7799L12.7071 18.7071Z" fill="#313234"/>
</svg>

<svg xmlns="http://www.w3.org/2000/svg" width="24" height="24" fill="none" viewBox="0 0 24 24"><path fill="#313234" fill-rule="evenodd" d="M12 6a4 4 0 0 0-3.98 3.599l-.09.901H6.25a3.25 3.25 0 0 0 0 6.5H7a1 1 0 1 1 0 2h-.75a5.25 5.25 0 0 1-.06-10.5 6.002 6.002 0 0 1 11.009-1.497A6 6 0 0 1 17 19a1 1 0 1 1 0-2 4 4 0 0 0 0-8h-1.07l-.262-.6A4 4 0 0 0 12 6m.707 12.707a1 1 0 0 1-1.414 0L8.366 15.78a.8.8 0 0 1 .565-1.366H11V11a1 1 0 1 1 2 0v3.414h2.069a.8.8 0 0 1 .565 1.366z" clip-rule="evenodd"/></svg>
